X:1
T:Title
%%score { 1 | 2 }
L:1/8
M:4/4
K:C
V:1 treble nm="Grand Piano"
V:2 bass 
V:1
 z4 z2[Q:1/4=100] [CE]>[DF] | [EG]2 [EG]2 [EG]2 [Ec]>[GB] | [GB]2 A2 A2 B>A | G2 E2 [DF]2 [EG]2 | %4
 [CE]6 [CE]>[DF] | [EG]2 [EG]2 [EG]2 [Ec]>[GB] | [GB]2 A2 A2 d>c | B2 B2 A2 B2 |[M:3/4] [Ec]6 | %9
[M:1/4] [Gc]>d |[M:4/4] e4 [Ec]4 | cdcA [EG]2 [CE]>[DF] | [EG]2 [EG]2 [Gc]2 [Gc]2 | [Gd]6 [Gc]>d | %14
 e2 d2 c2 [CGB]>[CGB] | [CFA][CGB][CAc][CFA] [CEG]2 [CEG]>[CEG] | [CFA]2 [FAd]2 [EGc]2 [DFB]2 | %17
[M:3/4] [CEc]6 |] %18
V:2
 z4 z2 [C,G,]>[C,G,] | [C,C]2 [C,C]2 [C,C]2 [C,C]>[C,C] | [F,C]2 [F,CF]2 [F,CF]2 [F,CG]>[F,CF] | %3
 [G,CE]2 [G,C]2 [G,,G,]2 [G,,G,]2 | [C,G,]6 [C,G,]>[B,,G,] | [C,C]2 [C,C]2 [C,C]2 [C,C]>[C,C] | %6
 [F,C]2 [F,CF]2 [F,CF]2 [^F,A,D]>[F,A,D] | [G,D]2 [G,DF]2 [G,DF]2 [G,DF]2 |[M:3/4][K:bass] [C,C]6 | %9
[M:1/4] [E,C]>[K:treble][G,B,G] |[M:4/4] [CG]4[K:bass] [C,G,]4 | %11
 [F,A,F][F,A,F][F,A,F][F,CF] [C,C]2 [C,G,]>[C,G,] | [C,C]2 [C,C]2 [E,C]2 [E,C]2 | %13
 [G,B,]6 [E,C]>[K:treble][G,B,G] | [CG]2 [G,B,F]2[K:bass] [A,CE]2 E,>E, | F,F,F,F, C,2 C,>C, | %16
 F,2 D,2 G,2 G,2 |[M:3/4] C,6 |] %18

